X: 4439
M: 3/4
L: 1/4
K: D
[| !p!\
E^D>E | B,2F | E3- | E3 |\
dc>B | A2F | F3 | E3 |\
|: !f!\
a>aA- | Agf | f>eB- | Bdd |
d>cc- | ccB | B>AA- | A^G/A/d/f/ |\
a>aA- | Agf | f>ee | (c'>bg/e/) |\
(b>af/d/) | cfe | d>dd | dzz :|


